select-all.svg

<svg fill="currentColor" viewBox="0 0 24 24"><path d="M9 9h6v6H9m-2 2h10V7H7m8-2h2V3h-2m0 18h2v-2h-2m4-2h2v-2h-2m0-6h2V7h-2m0 14a2 2 0 0 0 2-2h-2m0-6h2v-2h-2m-8 10h2v-2h-2M9 3H7v2h2M3 17h2v-2H3m2 6v-2H3a2 2 0 0 0 2 2M19 3v2h2a2 2 0 0 0-2-2m-6 0h-2v2h2M3 9h2V7H3m4 14h2v-2H7m-4-6h2v-2H3m0-6h2V3a2 2 0 0 0-2 2"/></svg>

<svg  viewBox="0 0 24 24" fill="currentColor"><path  d="M9,9H15V15H9M7,17H17V7H7M15,5H17V3H15M15,21H17V19H15M19,17H21V15H19M19,9H21V7H19M19,21A2,2 0 0,0 21,19H19M19,13H21V11H19M11,21H13V19H11M9,3H7V5H9M3,17H5V15H3M5,21V19H3A2,2 0 0,0 5,21M19,3V5H21A2,2 0 0,0 19,3M13,3H11V5H13M3,9H5V7H3M7,21H9V19H7M3,13H5V11H3M3,5H5V3A2,2 0 0,0 3,5Z"/></svg>
